images_sukapura_svg/cmd/lc_flowchartshapes.flowchart-punched-tape.svg

<svg viewBox="0 0 24 24" xmlns="http://www.w3.org/2000/svg" xmlns:xlink="http://www.w3.org/1999/xlink"><linearGradient id="a" gradientTransform="matrix(-1 0 0 1 24 0)" gradientUnits="userSpaceOnUse" x1="7.186441" x2="7.435547" y1="19.588341" y2="4.5"><stop offset="0" stop-color="#e5eefc"/><stop offset="1" stop-color="#fcfdff"/></linearGradient><path d="m16.564453 4.5c1.593296-.0962965 3.230309 1.0672473 4.935547 3v2.0716392 4.8734578 2.054903c-2.959552-2.368844-6.024355-3.116923-9.425781.381826-2.991534 3.269757-6.130884 3.647974-9.574219-.381826v-2.054903-4.8734578-2.0716392c2.891176 2.3292608 5.957414 3.173603 9.425781-.3650894 1.51323-1.5475667 3.045376-2.5386142 4.638672-2.6349106z" fill="url(#a)" stroke="#0a84ff" stroke-linecap="round" stroke-linejoin="round"/></svg>

<?xml version="1.0" encoding="UTF-8" standalone="no"?>
<svg
   xmlns:dc="http://purl.org/dc/elements/1.1/"
   xmlns:cc="http://creativecommons.org/ns#"
   xmlns:rdf="http://www.w3.org/1999/02/22-rdf-syntax-ns#"
   xmlns:svg="http://www.w3.org/2000/svg"
   xmlns="http://www.w3.org/2000/svg"
   xmlns:xlink="http://www.w3.org/1999/xlink"
   xmlns:sodipodi="http://sodipodi.sourceforge.net/DTD/sodipodi-0.dtd"
   xmlns:inkscape="http://www.inkscape.org/namespaces/inkscape"
   viewBox="0 0 24 24"
   version="1.1"
   id="svg4"
   sodipodi:docname="lc_flowchartshapes.flowchart-punched-tape.svg"
   inkscape:version="0.92.3 (2405546, 2018-03-11)">
  <metadata
     id="metadata10">
    <rdf:RDF>
      <cc:Work
         rdf:about="">
        <dc:format>image/svg+xml</dc:format>
        <dc:type
           rdf:resource="http://purl.org/dc/dcmitype/StillImage" />
        <dc:title></dc:title>
      </cc:Work>
    </rdf:RDF>
  </metadata>
  <defs
     id="defs8">
    <linearGradient
       gradientTransform="translate(-38.949152,-6.8135592)"
       id="a"
       gradientUnits="userSpaceOnUse"
       x1="12"
       x2="12"
       y1="21.5"
       y2="2.5">
      <stop
         offset="0"
         stop-color="#e5eefc"
         id="stop10139" />
      <stop
         offset="1"
         stop-color="#fcfdff"
         id="stop10141" />
    </linearGradient>
    <linearGradient
       inkscape:collect="always"
       xlink:href="#a"
       id="linearGradient835"
       x1="7.1864405"
       y1="19.588341"
       x2="7.4355469"
       y2="4.5"
       gradientUnits="userSpaceOnUse"
       gradientTransform="matrix(-1,0,0,1,24,0)" />
  </defs>
  <sodipodi:namedview
     pagecolor="#ffffff"
     bordercolor="#666666"
     borderopacity="1"
     objecttolerance="10"
     gridtolerance="10"
     guidetolerance="10"
     inkscape:pageopacity="0"
     inkscape:pageshadow="2"
     inkscape:window-width="1366"
     inkscape:window-height="716"
     id="namedview6"
     showgrid="false"
     inkscape:zoom="9.8333333"
     inkscape:cx="-24.101695"
     inkscape:cy="12"
     inkscape:window-x="-8"
     inkscape:window-y="-8"
     inkscape:window-maximized="1"
     inkscape:current-layer="svg4" />
  <path
     d="M 16.564453,4.5 C 18.157749,4.4037035 19.794762,5.5672473 21.5,7.5 V 9.5716392 14.445097 16.5 C 18.540448,14.131156 15.475645,13.383077 12.074219,16.881826 9.082685,20.151583 5.943335,20.5298 2.5,16.5 V 14.445097 9.5716392 7.5 C 5.391176,9.8292608 8.457414,10.673603 11.925781,7.1349106 13.439011,5.5873439 14.971157,4.5962964 16.564453,4.5 Z"
     id="path2"
     style="fill:url(#linearGradient835);fill-opacity:1;stroke:#0a84ff;stroke-linecap:round;stroke-linejoin:round;stroke-opacity:1"
     inkscape:connector-curvature="0" />
</svg>
